X:5051
T:The Trip To Hammersmith
M:6/8
R:Jig
L:1/8
C:Aidan Crossey
K:G
|:Bc|dBG dBG|cAF cde|dBG dBG|cAF DFA|
dBG dBG|cAF cde|fed cAF|AGF G:||
|:FG|FGA ABc|d^cd def|gdB gdB|AGF DEF|
FGA ABc|d^cd def|fed cAF|1 AGF G:||
2 AGF G3|
